images/50331079.svg

<?xml version="1.0" encoding="UTF-8"?>
<svg xmlns="http://www.w3.org/2000/svg" xmlns:xlink="http://www.w3.org/1999/xlink" width="300pt" height="300pt" viewBox="0 0 300 300" version="1.1">
<defs>
<g>
<symbol overflow="visible" id="glyph0-0">
<path style="stroke:none;" d="M 0.453125 1.59375 L 0.453125 -6.34375 L 4.953125 -6.34375 L 4.953125 1.59375 Z M 0.953125 1.09375 L 4.453125 1.09375 L 4.453125 -5.84375 L 0.953125 -5.84375 Z M 0.953125 1.09375 "/>
</symbol>
<symbol overflow="visible" id="glyph0-1">
<path style="stroke:none;" d="M 3.546875 -5.953125 C 2.898438 -5.953125 2.382812 -5.710938 2 -5.234375 C 1.625 -4.753906 1.4375 -4.101562 1.4375 -3.28125 C 1.4375 -2.445312 1.625 -1.789062 2 -1.3125 C 2.382812 -0.832031 2.898438 -0.59375 3.546875 -0.59375 C 4.191406 -0.59375 4.703125 -0.832031 5.078125 -1.3125 C 5.453125 -1.789062 5.640625 -2.445312 5.640625 -3.28125 C 5.640625 -4.101562 5.453125 -4.753906 5.078125 -5.234375 C 4.703125 -5.710938 4.191406 -5.953125 3.546875 -5.953125 Z M 3.546875 -6.6875 C 4.460938 -6.6875 5.195312 -6.375 5.75 -5.75 C 6.300781 -5.132812 6.578125 -4.3125 6.578125 -3.28125 C 6.578125 -2.238281 6.300781 -1.410156 5.75 -0.796875 C 5.195312 -0.179688 4.460938 0.125 3.546875 0.125 C 2.617188 0.125 1.878906 -0.179688 1.328125 -0.796875 C 0.773438 -1.410156 0.5 -2.238281 0.5 -3.28125 C 0.5 -4.3125 0.773438 -5.132812 1.328125 -5.75 C 1.878906 -6.375 2.617188 -6.6875 3.546875 -6.6875 Z M 3.546875 -6.6875 "/>
</symbol>
<symbol overflow="visible" id="glyph0-2">
<path style="stroke:none;" d="M 0.890625 -6.5625 L 2.078125 -6.5625 L 4.984375 -1.078125 L 4.984375 -6.5625 L 5.84375 -6.5625 L 5.84375 0 L 4.65625 0 L 1.75 -5.484375 L 1.75 0 L 0.890625 0 Z M 0.890625 -6.5625 "/>
</symbol>
<symbol overflow="visible" id="glyph0-3">
<path style="stroke:none;" d="M 0.890625 -6.5625 L 1.765625 -6.5625 L 1.765625 -3.875 L 5 -3.875 L 5 -6.5625 L 5.890625 -6.5625 L 5.890625 0 L 5 0 L 5 -3.125 L 1.765625 -3.125 L 1.765625 0 L 0.890625 0 Z M 0.890625 -6.5625 "/>
</symbol>
</g>
</defs>
<g id="surface25657">
<rect x="0" y="0" width="300" height="300" style="fill:rgb(100%,100%,100%);fill-opacity:1;stroke:none;"/>
<path style="fill:none;stroke-width:1.2;stroke-linecap:butt;stroke-linejoin:miter;stroke:rgb(100%,0%,0%);stroke-opacity:1;stroke-miterlimit:10;" d="M 125.453125 132.21875 L 119.476562 139.558594 "/>
<path style="fill:none;stroke-width:1.2;stroke-linecap:butt;stroke-linejoin:miter;stroke:rgb(0%,0%,0%);stroke-opacity:1;stroke-miterlimit:10;" d="M 119.476562 139.558594 L 113.5 146.898438 "/>
<path style="fill:none;stroke-width:1.2;stroke-linecap:butt;stroke-linejoin:miter;stroke:rgb(100%,0%,0%);stroke-opacity:1;stroke-miterlimit:10;" d="M 128.910156 135.03125 L 122.933594 142.371094 "/>
<path style="fill:none;stroke-width:1.2;stroke-linecap:butt;stroke-linejoin:miter;stroke:rgb(0%,0%,0%);stroke-opacity:1;stroke-miterlimit:10;" d="M 122.933594 142.371094 L 116.953125 149.710938 "/>
<path style=" stroke:none;fill-rule:nonzero;fill:rgb(100%,100%,100%);fill-opacity:1;" d="M 123.179688 128.125 L 131.179688 128.125 L 131.179688 139.125 L 123.179688 139.125 Z M 123.179688 128.125 "/>
<g style="fill:rgb(100%,0%,0%);fill-opacity:1;">
  <use xlink:href="#glyph0-1" x="123.179688" y="136.788086"/>
</g>
<path style="fill:none;stroke-width:1.2;stroke-linecap:butt;stroke-linejoin:miter;stroke:rgb(0%,0%,0%);stroke-opacity:1;stroke-miterlimit:10;" d="M 115.226562 148.304688 L 118.597656 157.152344 "/>
<path style="fill:none;stroke-width:1.2;stroke-linecap:butt;stroke-linejoin:miter;stroke:rgb(0%,0%,100%);stroke-opacity:1;stroke-miterlimit:10;" d="M 118.597656 157.152344 L 121.964844 165.996094 "/>
<path style="fill:none;stroke-width:1.2;stroke-linecap:butt;stroke-linejoin:miter;stroke:rgb(0%,0%,0%);stroke-opacity:1;stroke-miterlimit:10;" d="M 115.226562 148.304688 L 96.539062 145.292969 "/>
<path style="fill:none;stroke-width:1.2;stroke-linecap:butt;stroke-linejoin:miter;stroke:rgb(0%,0%,100%);stroke-opacity:1;stroke-miterlimit:10;" d="M 121.964844 165.996094 L 131.308594 167.503906 "/>
<path style="fill:none;stroke-width:1.2;stroke-linecap:butt;stroke-linejoin:miter;stroke:rgb(0%,0%,0%);stroke-opacity:1;stroke-miterlimit:10;" d="M 131.308594 167.503906 L 140.65625 169.007812 "/>
<path style=" stroke:none;fill-rule:nonzero;fill:rgb(100%,100%,100%);fill-opacity:1;" d="M 114.964844 160.496094 L 128.964844 160.496094 L 128.964844 171.496094 L 114.964844 171.496094 Z M 114.964844 160.496094 "/>
<g style="fill:rgb(0%,0%,100%);fill-opacity:1;">
  <use xlink:href="#glyph0-2" x="114.964844" y="169.15918"/>
  <use xlink:href="#glyph0-3" x="121.942383" y="169.15918"/>
</g>
<path style="fill:none;stroke-width:1.2;stroke-linecap:butt;stroke-linejoin:miter;stroke:rgb(0%,0%,0%);stroke-opacity:1;stroke-miterlimit:10;" d="M 140.65625 169.007812 L 144.023438 177.855469 "/>
<path style="fill:none;stroke-width:1.2;stroke-linecap:butt;stroke-linejoin:miter;stroke:rgb(0%,0%,100%);stroke-opacity:1;stroke-miterlimit:10;" d="M 144.023438 177.855469 L 147.390625 186.699219 "/>
<path style="fill:none;stroke-width:1.2;stroke-linecap:butt;stroke-linejoin:miter;stroke:rgb(0%,0%,0%);stroke-opacity:1;stroke-miterlimit:10;" d="M 145.492188 169.191406 L 148.1875 176.269531 "/>
<path style="fill:none;stroke-width:1.2;stroke-linecap:butt;stroke-linejoin:miter;stroke:rgb(0%,0%,100%);stroke-opacity:1;stroke-miterlimit:10;" d="M 148.1875 176.269531 L 150.878906 183.347656 "/>
<path style="fill:none;stroke-width:1.2;stroke-linecap:butt;stroke-linejoin:miter;stroke:rgb(0%,0%,0%);stroke-opacity:1;stroke-miterlimit:10;" d="M 152.609375 154.328125 L 140.65625 169.007812 "/>
<path style="fill:none;stroke-width:1.2;stroke-linecap:butt;stroke-linejoin:miter;stroke:rgb(0%,0%,100%);stroke-opacity:1;stroke-miterlimit:10;" d="M 147.390625 186.699219 L 156.738281 188.207031 "/>
<path style="fill:none;stroke-width:1.2;stroke-linecap:butt;stroke-linejoin:miter;stroke:rgb(0%,0%,0%);stroke-opacity:1;stroke-miterlimit:10;" d="M 156.738281 188.207031 L 166.082031 189.710938 "/>
<path style=" stroke:none;fill-rule:nonzero;fill:rgb(100%,100%,100%);fill-opacity:1;" d="M 144.390625 181.199219 L 151.390625 181.199219 L 151.390625 192.199219 L 144.390625 192.199219 Z M 144.390625 181.199219 "/>
<g style="fill:rgb(0%,0%,100%);fill-opacity:1;">
  <use xlink:href="#glyph0-2" x="144.390625" y="189.862305"/>
</g>
<path style="fill:none;stroke-width:1.2;stroke-linecap:butt;stroke-linejoin:miter;stroke:rgb(0%,0%,0%);stroke-opacity:1;stroke-miterlimit:10;" d="M 166.082031 189.710938 L 178.035156 175.03125 "/>
<path style="fill:none;stroke-width:1.2;stroke-linecap:butt;stroke-linejoin:miter;stroke:rgb(0%,0%,0%);stroke-opacity:1;stroke-miterlimit:10;" d="M 163.824219 185.433594 L 173.386719 173.6875 "/>
<path style="fill:none;stroke-width:1.2;stroke-linecap:butt;stroke-linejoin:miter;stroke:rgb(0%,0%,0%);stroke-opacity:1;stroke-miterlimit:10;" d="M 178.035156 175.03125 L 171.296875 157.339844 "/>
<path style="fill:none;stroke-width:1.2;stroke-linecap:butt;stroke-linejoin:miter;stroke:rgb(0%,0%,0%);stroke-opacity:1;stroke-miterlimit:10;" d="M 171.296875 157.339844 L 152.609375 154.328125 "/>
<path style="fill:none;stroke-width:1.2;stroke-linecap:butt;stroke-linejoin:miter;stroke:rgb(0%,0%,0%);stroke-opacity:1;stroke-miterlimit:10;" d="M 168.722656 161.4375 L 153.769531 159.027344 "/>
<path style="fill:none;stroke-width:1.2;stroke-linecap:butt;stroke-linejoin:miter;stroke:rgb(0%,0%,0%);stroke-opacity:1;stroke-miterlimit:10;" d="M 171.296875 157.339844 L 183.253906 142.660156 "/>
<path style="fill:none;stroke-width:1.2;stroke-linecap:butt;stroke-linejoin:miter;stroke:rgb(0%,0%,0%);stroke-opacity:1;stroke-miterlimit:10;" d="M 183.253906 142.660156 L 201.941406 145.671875 "/>
<path style="fill:none;stroke-width:1.2;stroke-linecap:butt;stroke-linejoin:miter;stroke:rgb(0%,0%,0%);stroke-opacity:1;stroke-miterlimit:10;" d="M 185.828125 138.5625 L 200.78125 140.972656 "/>
<path style="fill:none;stroke-width:1.2;stroke-linecap:butt;stroke-linejoin:miter;stroke:rgb(0%,0%,0%);stroke-opacity:1;stroke-miterlimit:10;" d="M 176.515625 124.96875 L 183.253906 142.660156 "/>
<path style="fill:none;stroke-width:1.2;stroke-linecap:butt;stroke-linejoin:miter;stroke:rgb(0%,0%,0%);stroke-opacity:1;stroke-miterlimit:10;" d="M 201.941406 145.671875 L 213.894531 130.992188 "/>
<path style="fill:none;stroke-width:1.2;stroke-linecap:butt;stroke-linejoin:miter;stroke:rgb(0%,0%,0%);stroke-opacity:1;stroke-miterlimit:10;" d="M 213.894531 130.992188 L 210.527344 122.144531 "/>
<path style="fill:none;stroke-width:1.2;stroke-linecap:butt;stroke-linejoin:miter;stroke:rgb(0%,0%,100%);stroke-opacity:1;stroke-miterlimit:10;" d="M 210.527344 122.144531 L 207.160156 113.300781 "/>
<path style="fill:none;stroke-width:1.2;stroke-linecap:butt;stroke-linejoin:miter;stroke:rgb(0%,0%,0%);stroke-opacity:1;stroke-miterlimit:10;" d="M 209.058594 130.808594 L 206.363281 123.730469 "/>
<path style="fill:none;stroke-width:1.2;stroke-linecap:butt;stroke-linejoin:miter;stroke:rgb(0%,0%,100%);stroke-opacity:1;stroke-miterlimit:10;" d="M 206.363281 123.730469 L 203.671875 116.652344 "/>
<path style="fill:none;stroke-width:1.2;stroke-linecap:butt;stroke-linejoin:miter;stroke:rgb(0%,0%,0%);stroke-opacity:1;stroke-miterlimit:10;" d="M 213.894531 130.992188 L 223.242188 132.496094 "/>
<path style="fill:none;stroke-width:1.2;stroke-linecap:butt;stroke-linejoin:miter;stroke:rgb(0%,0%,100%);stroke-opacity:1;stroke-miterlimit:10;" d="M 223.242188 132.496094 L 232.585938 134.003906 "/>
<path style="fill:none;stroke-width:1.2;stroke-linecap:butt;stroke-linejoin:miter;stroke:rgb(0%,0%,100%);stroke-opacity:1;stroke-miterlimit:10;" d="M 207.160156 113.300781 L 197.8125 111.792969 "/>
<path style="fill:none;stroke-width:1.2;stroke-linecap:butt;stroke-linejoin:miter;stroke:rgb(0%,0%,0%);stroke-opacity:1;stroke-miterlimit:10;" d="M 197.8125 111.792969 L 188.46875 110.289062 "/>
<path style=" stroke:none;fill-rule:nonzero;fill:rgb(100%,100%,100%);fill-opacity:1;" d="M 204.160156 107.800781 L 211.160156 107.800781 L 211.160156 118.800781 L 204.160156 118.800781 Z M 204.160156 107.800781 "/>
<g style="fill:rgb(0%,0%,100%);fill-opacity:1;">
  <use xlink:href="#glyph0-2" x="204.160156" y="116.463867"/>
</g>
<path style="fill:none;stroke-width:1.2;stroke-linecap:butt;stroke-linejoin:miter;stroke:rgb(0%,0%,0%);stroke-opacity:1;stroke-miterlimit:10;" d="M 188.46875 110.289062 L 176.515625 124.96875 "/>
<path style="fill:none;stroke-width:1.2;stroke-linecap:butt;stroke-linejoin:miter;stroke:rgb(0%,0%,0%);stroke-opacity:1;stroke-miterlimit:10;" d="M 190.726562 114.566406 L 181.164062 126.3125 "/>
<path style="fill:none;stroke-width:1.2;stroke-linecap:butt;stroke-linejoin:miter;stroke:rgb(0%,0%,100%);stroke-opacity:1;stroke-miterlimit:10;" d="M 232.585938 134.003906 L 235.953125 142.847656 "/>
<path style="fill:none;stroke-width:1.2;stroke-linecap:butt;stroke-linejoin:miter;stroke:rgb(0%,0%,0%);stroke-opacity:1;stroke-miterlimit:10;" d="M 235.953125 142.847656 L 239.324219 151.695312 "/>
<path style=" stroke:none;fill-rule:nonzero;fill:rgb(100%,100%,100%);fill-opacity:1;" d="M 225.585938 128.503906 L 239.585938 128.503906 L 239.585938 139.503906 L 225.585938 139.503906 Z M 225.585938 128.503906 "/>
<g style="fill:rgb(0%,0%,100%);fill-opacity:1;">
  <use xlink:href="#glyph0-2" x="225.585938" y="137.166992"/>
  <use xlink:href="#glyph0-3" x="232.563477" y="137.166992"/>
</g>
<path style="fill:none;stroke-width:1.2;stroke-linecap:butt;stroke-linejoin:miter;stroke:rgb(0%,0%,0%);stroke-opacity:1;stroke-miterlimit:10;" d="M 239.324219 151.695312 L 227.371094 166.375 "/>
<path style="fill:none;stroke-width:1.2;stroke-linecap:butt;stroke-linejoin:miter;stroke:rgb(0%,0%,0%);stroke-opacity:1;stroke-miterlimit:10;" d="M 241.582031 155.976562 L 232.019531 167.71875 "/>
<path style="fill:none;stroke-width:1.2;stroke-linecap:butt;stroke-linejoin:miter;stroke:rgb(0%,0%,0%);stroke-opacity:1;stroke-miterlimit:10;" d="M 258.011719 154.707031 L 239.324219 151.695312 "/>
<path style="fill:none;stroke-width:1.2;stroke-linecap:butt;stroke-linejoin:miter;stroke:rgb(0%,0%,0%);stroke-opacity:1;stroke-miterlimit:10;" d="M 227.371094 166.375 L 234.105469 184.066406 "/>
<path style="fill:none;stroke-width:1.2;stroke-linecap:butt;stroke-linejoin:miter;stroke:rgb(0%,0%,0%);stroke-opacity:1;stroke-miterlimit:10;" d="M 234.105469 184.066406 L 252.796875 187.078125 "/>
<path style="fill:none;stroke-width:1.2;stroke-linecap:butt;stroke-linejoin:miter;stroke:rgb(0%,0%,0%);stroke-opacity:1;stroke-miterlimit:10;" d="M 236.683594 179.972656 L 251.636719 182.382812 "/>
<path style="fill:none;stroke-width:1.2;stroke-linecap:butt;stroke-linejoin:miter;stroke:rgb(0%,0%,0%);stroke-opacity:1;stroke-miterlimit:10;" d="M 252.796875 187.078125 L 264.75 172.398438 "/>
<path style="fill:none;stroke-width:1.2;stroke-linecap:butt;stroke-linejoin:miter;stroke:rgb(0%,0%,0%);stroke-opacity:1;stroke-miterlimit:10;" d="M 264.75 172.398438 L 258.011719 154.707031 "/>
<path style="fill:none;stroke-width:1.2;stroke-linecap:butt;stroke-linejoin:miter;stroke:rgb(0%,0%,0%);stroke-opacity:1;stroke-miterlimit:10;" d="M 259.914062 172.214844 L 254.523438 158.0625 "/>
<path style="fill:none;stroke-width:1.2;stroke-linecap:butt;stroke-linejoin:miter;stroke:rgb(0%,0%,0%);stroke-opacity:1;stroke-miterlimit:10;" d="M 96.539062 145.292969 L 89.800781 127.601562 "/>
<path style="fill:none;stroke-width:1.2;stroke-linecap:butt;stroke-linejoin:miter;stroke:rgb(0%,0%,0%);stroke-opacity:1;stroke-miterlimit:10;" d="M 84.585938 159.972656 L 96.539062 145.292969 "/>
<path style="fill:none;stroke-width:1.2;stroke-linecap:butt;stroke-linejoin:miter;stroke:rgb(0%,0%,0%);stroke-opacity:1;stroke-miterlimit:10;" d="M 89.800781 127.601562 L 71.109375 124.589844 "/>
<path style="fill:none;stroke-width:1.2;stroke-linecap:butt;stroke-linejoin:miter;stroke:rgb(0%,0%,0%);stroke-opacity:1;stroke-miterlimit:10;" d="M 71.109375 124.589844 L 59.15625 139.269531 "/>
<path style="fill:none;stroke-width:1.2;stroke-linecap:butt;stroke-linejoin:miter;stroke:rgb(0%,0%,0%);stroke-opacity:1;stroke-miterlimit:10;" d="M 59.15625 139.269531 L 62.523438 148.113281 "/>
<path style="fill:none;stroke-width:1.2;stroke-linecap:butt;stroke-linejoin:miter;stroke:rgb(0%,0%,100%);stroke-opacity:1;stroke-miterlimit:10;" d="M 62.523438 148.113281 L 65.894531 156.960938 "/>
<path style="fill:none;stroke-width:1.2;stroke-linecap:butt;stroke-linejoin:miter;stroke:rgb(0%,0%,100%);stroke-opacity:1;stroke-miterlimit:10;" d="M 65.894531 156.960938 L 75.238281 158.46875 "/>
<path style="fill:none;stroke-width:1.2;stroke-linecap:butt;stroke-linejoin:miter;stroke:rgb(0%,0%,0%);stroke-opacity:1;stroke-miterlimit:10;" d="M 75.238281 158.46875 L 84.585938 159.972656 "/>
<path style="fill:none;stroke-width:1.2;stroke-linecap:butt;stroke-linejoin:miter;stroke:rgb(0%,0%,100%);stroke-opacity:1;stroke-miterlimit:10;" d="M 65.894531 156.960938 L 59.917969 164.300781 "/>
<path style="fill:none;stroke-width:1.2;stroke-linecap:butt;stroke-linejoin:miter;stroke:rgb(0%,0%,0%);stroke-opacity:1;stroke-miterlimit:10;" d="M 59.917969 164.300781 L 53.941406 171.640625 "/>
<path style=" stroke:none;fill-rule:nonzero;fill:rgb(100%,100%,100%);fill-opacity:1;" d="M 62.894531 151.460938 L 69.894531 151.460938 L 69.894531 162.460938 L 62.894531 162.460938 Z M 62.894531 151.460938 "/>
<g style="fill:rgb(0%,0%,100%);fill-opacity:1;">
  <use xlink:href="#glyph0-2" x="62.894531" y="160.124023"/>
</g>
<path style="fill:none;stroke-width:1.2;stroke-linecap:butt;stroke-linejoin:miter;stroke:rgb(0%,0%,0%);stroke-opacity:1;stroke-miterlimit:10;" d="M 51.859375 172.433594 L 55.226562 181.28125 "/>
<path style="fill:none;stroke-width:1.2;stroke-linecap:butt;stroke-linejoin:miter;stroke:rgb(100%,0%,0%);stroke-opacity:1;stroke-miterlimit:10;" d="M 55.226562 181.28125 L 58.59375 190.125 "/>
<path style="fill:none;stroke-width:1.2;stroke-linecap:butt;stroke-linejoin:miter;stroke:rgb(0%,0%,0%);stroke-opacity:1;stroke-miterlimit:10;" d="M 56.023438 170.847656 L 59.390625 179.695312 "/>
<path style="fill:none;stroke-width:1.2;stroke-linecap:butt;stroke-linejoin:miter;stroke:rgb(100%,0%,0%);stroke-opacity:1;stroke-miterlimit:10;" d="M 59.390625 179.695312 L 62.757812 188.542969 "/>
<path style="fill:none;stroke-width:1.2;stroke-linecap:butt;stroke-linejoin:miter;stroke:rgb(0%,0%,0%);stroke-opacity:1;stroke-miterlimit:10;" d="M 53.941406 171.640625 L 35.25 168.628906 "/>
<path style=" stroke:none;fill-rule:nonzero;fill:rgb(100%,100%,100%);fill-opacity:1;" d="M 56.675781 183.832031 L 64.675781 183.832031 L 64.675781 194.832031 L 56.675781 194.832031 Z M 56.675781 183.832031 "/>
<g style="fill:rgb(100%,0%,0%);fill-opacity:1;">
  <use xlink:href="#glyph0-1" x="56.675781" y="192.495117"/>
</g>
</g>
</svg>

<svg xmlns="http://www.w3.org/2000/svg" xmlns:xlink="http://www.w3.org/1999/xlink" width="300pt" height="300pt" viewBox="0 0 300 300"><defs><symbol overflow="visible"><path d="M.453 1.594v-7.938h4.5v7.938zm.5-.5h3.5v-6.938h-3.5zm0 0"/></symbol><symbol overflow="visible" id="a"><path d="M3.547-5.953c-.65 0-1.164.242-1.547.72-.375.48-.563 1.13-.563 1.952 0 .835.188 1.49.563 1.967.383.48.898.72 1.547.72.644 0 1.156-.24 1.53-.72.376-.476.564-1.132.564-1.968 0-.822-.187-1.474-.562-1.954-.375-.477-.887-.72-1.53-.72zm0-.734c.914 0 1.648.312 2.203.937.55.617.828 1.438.828 2.47 0 1.042-.277 1.87-.828 2.483-.555.617-1.29.922-2.203.922-.93 0-1.668-.305-2.22-.922C.774-1.41.5-2.237.5-3.28c0-1.033.273-1.853.828-2.47.55-.625 1.29-.938 2.22-.938zm0 0"/></symbol><symbol overflow="visible" id="b"><path d="M.89-6.563H2.08l2.906 5.485v-5.484h.86V0H4.656L1.75-5.484V0H.89zm0 0"/></symbol><symbol overflow="visible" id="c"><path d="M.89-6.563h.876v2.688H5v-2.688h.89V0H5v-3.125H1.766V0H.89zm0 0"/></symbol></defs><g><path fill="#fff" d="M0 0h300v300H0z"/><path d="M125.453 132.22l-5.976 7.34" stroke-width="1.2" stroke="#f00" stroke-miterlimit="10" fill="none"/><path d="M119.477 139.56l-5.977 7.338" stroke-width="1.2" stroke="#000" stroke-miterlimit="10" fill="none"/><path d="M128.91 135.03l-5.976 7.34" stroke-width="1.2" stroke="#f00" stroke-miterlimit="10" fill="none"/><path d="M122.934 142.37l-5.98 7.34" stroke-width="1.2" stroke="#000" stroke-miterlimit="10" fill="none"/><path d="M123.18 128.125h8v11h-8zm0 0" fill="#fff"/><use xlink:href="#a" x="123.18" y="136.788" fill="#f00"/><path d="M115.227 148.305l3.37 8.847" stroke-width="1.2" stroke="#000" stroke-miterlimit="10" fill="none"/><path d="M118.598 157.152l3.367 8.844" stroke-width="1.2" stroke="#00f" stroke-miterlimit="10" fill="none"/><path d="M115.227 148.305l-18.688-3.012" stroke-width="1.2" stroke="#000" stroke-miterlimit="10" fill="none"/><path d="M121.965 165.996l9.344 1.508" stroke-width="1.2" stroke="#00f" stroke-miterlimit="10" fill="none"/><path d="M131.31 167.504l9.346 1.504" stroke-width="1.2" stroke="#000" stroke-miterlimit="10" fill="none"/><path d="M114.965 160.496h14v11h-14zm0 0" fill="#fff"/><g fill="#00f"><use xlink:href="#b" x="114.965" y="169.159"/><use xlink:href="#c" x="121.942" y="169.159"/></g><path d="M140.656 169.008l3.367 8.847" stroke-width="1.2" stroke="#000" stroke-miterlimit="10" fill="none"/><path d="M144.023 177.855l3.368 8.844" stroke-width="1.2" stroke="#00f" stroke-miterlimit="10" fill="none"/><path d="M145.492 169.19l2.696 7.08" stroke-width="1.2" stroke="#000" stroke-miterlimit="10" fill="none"/><path d="M148.188 176.27l2.69 7.078" stroke-width="1.2" stroke="#00f" stroke-miterlimit="10" fill="none"/><path d="M152.61 154.328l-11.954 14.68" stroke-width="1.2" stroke="#000" stroke-miterlimit="10" fill="none"/><path d="M147.39 186.7l9.348 1.507" stroke-width="1.2" stroke="#00f" stroke-miterlimit="10" fill="none"/><path d="M156.738 188.207l9.344 1.504" stroke-width="1.2" stroke="#000" stroke-miterlimit="10" fill="none"/><path d="M144.39 181.2h7v11h-7zm0 0" fill="#fff"/><use xlink:href="#b" x="144.391" y="189.862" fill="#00f"/><path d="M166.082 189.71l11.953-14.68M163.824 185.434l9.563-11.746M178.035 175.03l-6.738-17.69M171.297 157.34l-18.688-3.012M168.723 161.438l-14.953-2.41M171.297 157.34l11.957-14.68M183.254 142.66l18.687 3.012M185.828 138.563l14.953 2.41M176.516 124.97l6.738 17.69M201.94 145.672l11.955-14.68M213.895 130.992l-3.368-8.847" stroke-width="1.2" stroke="#000" stroke-miterlimit="10" fill="none"/><path d="M210.527 122.145l-3.367-8.844" stroke-width="1.2" stroke="#00f" stroke-miterlimit="10" fill="none"/><path d="M209.06 130.81l-2.697-7.08" stroke-width="1.2" stroke="#000" stroke-miterlimit="10" fill="none"/><path d="M206.363 123.73l-2.69-7.078" stroke-width="1.2" stroke="#00f" stroke-miterlimit="10" fill="none"/><path d="M213.895 130.992l9.347 1.504" stroke-width="1.2" stroke="#000" stroke-miterlimit="10" fill="none"/><path d="M223.242 132.496l9.344 1.508M207.16 113.3l-9.347-1.507" stroke-width="1.2" stroke="#00f" stroke-miterlimit="10" fill="none"/><path d="M197.813 111.793l-9.344-1.504" stroke-width="1.2" stroke="#000" stroke-miterlimit="10" fill="none"/><path d="M204.16 107.8h7v11h-7zm0 0" fill="#fff"/><use xlink:href="#b" x="204.16" y="116.464" fill="#00f"/><path d="M188.47 110.29l-11.954 14.68M190.727 114.566l-9.563 11.746" stroke-width="1.2" stroke="#000" stroke-miterlimit="10" fill="none"/><path d="M232.586 134.004l3.367 8.844" stroke-width="1.2" stroke="#00f" stroke-miterlimit="10" fill="none"/><path d="M235.953 142.848l3.37 8.847" stroke-width="1.2" stroke="#000" stroke-miterlimit="10" fill="none"/><path d="M225.586 128.504h14v11h-14zm0 0" fill="#fff"/><g fill="#00f"><use xlink:href="#b" x="225.586" y="137.167"/><use xlink:href="#c" x="232.563" y="137.167"/></g><path d="M239.324 151.695l-11.953 14.68M241.582 155.977l-9.562 11.742M258.012 154.707l-18.688-3.012M227.37 166.375l6.735 17.69M234.105 184.066l18.692 3.012M236.684 179.973l14.953 2.41M252.797 187.078l11.953-14.68M264.75 172.398l-6.738-17.69M259.914 172.215l-5.39-14.153M96.54 145.293l-6.74-17.69M84.586 159.973l11.953-14.68M89.8 127.602l-18.69-3.012M71.11 124.59l-11.954 14.68M59.156 139.27l3.367 8.843" stroke-width="1.2" stroke="#000" stroke-miterlimit="10" fill="none"/><path d="M62.523 148.113l3.372 8.848M65.895 156.96l9.343 1.51" stroke-width="1.2" stroke="#00f" stroke-miterlimit="10" fill="none"/><path d="M75.238 158.47l9.348 1.503" stroke-width="1.2" stroke="#000" stroke-miterlimit="10" fill="none"/><path d="M65.895 156.96l-5.977 7.34" stroke-width="1.2" stroke="#00f" stroke-miterlimit="10" fill="none"/><path d="M59.918 164.3l-5.977 7.34" stroke-width="1.2" stroke="#000" stroke-miterlimit="10" fill="none"/><path d="M62.895 151.46h7v11h-7zm0 0" fill="#fff"/><use xlink:href="#b" x="62.895" y="160.124" fill="#00f"/><path d="M51.86 172.434l3.367 8.847" stroke-width="1.2" stroke="#000" stroke-miterlimit="10" fill="none"/><path d="M55.227 181.28l3.367 8.845" stroke-width="1.2" stroke="#f00" stroke-miterlimit="10" fill="none"/><path d="M56.023 170.848l3.368 8.847" stroke-width="1.2" stroke="#000" stroke-miterlimit="10" fill="none"/><path d="M59.39 179.695l3.368 8.848" stroke-width="1.2" stroke="#f00" stroke-miterlimit="10" fill="none"/><path d="M53.94 171.64l-18.69-3.01" stroke-width="1.2" stroke="#000" stroke-miterlimit="10" fill="none"/><path d="M56.676 183.832h8v11h-8zm0 0" fill="#fff"/><use xlink:href="#a" x="56.676" y="192.495" fill="#f00"/></g></svg>
